X:5
T:Klarinettvals
R:vals
H:efter Karl Bj\"orklund, Bj\"orkek\"arr
A:V\"asterg\"otland
Z:id:hn-vals-5
M:3/4
L:1/8
K:F
c2 cA F2 | d2 dc BA | GF EC EG | FE FG AB | 
c2 cA F2 | d2 dc BA | GF EC EG | F6 :|
|: B2 GB GB | BA FC FA | GF EC DE | FE FG AB |
cB GB GB | BA FC FA | GF EC DE | F6 :|
|: E2 GE C2 | CF AG F2 | EF GA BG | GF FA F2 |
E2 GE C2 | CF AG F2 | EF GA BG | F6 :|
|: C2 FA FA | Ac BA B2 | CD EF GA | BA GA F2 |
F2 AF A2 | cB dc BA | GE CE GE | F6 :|
<end>
<start>
